!!!!SEGMENT: pl-wtm--a-33-418-82_krupinski-wiktor--nie-placz-dziewczyno.krn
!!!cenid: 19xx:38
!!!COM: Krupiński, Wiktor
!!!COM-rismID: pe50047127
!!!CDT: 1879-1951
!!!CNT: Polish
!!!OTL: Nie płacz dziewczyno
!!!PDT:
!!!AGN: Secular
!!!YEC: Copyright 2022 Narodowy Instytut Fryderyka Chopina (https://polishscores.org)
!!!YEM: License CC-BY-4.0 (https://creativecommons.org/licenses/by/4.0)
!!!SMS-siglum: PL-Wtm
!!!SMS-shelfmark: A.33.418-82
!!!SMS-variant:
!!!SMS-altvar:
!!!SMS-shelfwork: W
!!!NIFC-rismSourceID: 1001151114
!!!NIFC-rismChildID: 1001151114
!!!NIFC-islandoraID: pl-wtm:2170
!!!URL-pdf-islandora: https://repozytorium.nifc.pl/islandora/object/pl-wtm%3A2170/datastream/PDF/view
!!!URL-scan: https://polish.musicsources.pl/pl/lokalizacje/galeria/druki-muzyczne/15423/2 @EN{Scan on Polish Music Sources Website} @PL{Skany w portalu Dziedzictwo Muzyki Polskiej w otwartym dostępie}
!!!IIIF:
!!!ONB-nifc:
!!!OMD: Allegretto.
!!!AIN: 1 piano 1 vox
!!!key:
**kern	**kern	**dynam	**kern	**text	**text	**text
*part2	*part2	*part2	*part1	*part1	*part1	*part1
*staff3	*staff2	*	*staff1	*staff1	*staff1	*staff1
*I"[Fortepian]	*	*	*I"[Głos]	*	*	*
*Ipiano	*	*	*Ivox	*	*	*
*ICklav	*	*	*ICvox	*	*	*
*IGacmp	*	*	*IGsolo	*	*	*
*clefF4	*clefG2	*	*clefG2	*	*	*
*k[f#]	*k[f#]	*	*k[f#]	*	*	*
*G:	*G:	*	*G:	*	*	*
*M2/4	*M2/4	*	*M2/4	*	*	*
=1	=1	=1	=1	=1	=1	=1
!	!LO:TX:b:i:t=(alla signale)	!	!	!	!	!
2r	8gg'\L	mf	2r	.	.	.
.	16gg'\L	.	.	.	.	.
.	16gg'\JJ	.	.	.	.	.
.	16gg'\LL	.	.	.	.	.
.	16dd'\	.	.	.	.	.
.	16gg'\	.	.	.	.	.
.	16ddd'\JJ	.	.	.	.	.
=2	=2	=2	=2	=2	=2	=2
2r	8gg\	.	2r	.	.	.
.	8r	.	.	.	.	.
.	(16aa-X\LL	.	.	.	.	.
.	16ee-X\	.	.	.	.	.
.	16aa-\	.	.	.	.	.
.	16eee-X\JJ	.	.	.	.	.
=3	=3	=3	=3	=3	=3	=3
2r	8aa-X\)	.	2r	.	.	.
.	8r	.	.	.	.	.
.	(8aan\L	.	.	.	.	.
.	8ddd\J)	.	.	.	.	.
=4	=4	=4	=4	=4	=4	=4
2r	(4a/	pp	2r	.	.	.
!	!LO:TX:b:i:t=rit.	!	!	!	!	!
.	8dd\)	.	.	.	.	.
.	8r	.	.	.	.	.
!!LO:LB:g=original
=5||	=5||	=5||	=5||	=5||	=5||	=5||
*	*^	*	*	*	*	*
!	!	!	!LO:DY:rj	!LO:TX:a:B:t=Andante con anima.	!	!	!
8GGG\L 8GG	4dd/	4d\ 4g 4b	f	4dd\	Nie	Nie	Nie
(16D'\L 16G 16B	.	.	.	.	.	.	.
16D'\JJ) 16G 16B	.	.	.	.	.	.	.
(8D'\L 8G 8B	8d/L 8g 8b	4ryy	.	8b\	płacz	płacz	płacz
8D'\J) 8A	8c/J 8e 8a	.	.	8a/	dzie-	dzie-	dzie-
=6	=6	=6	=6	=6	=6	=6	=6
8GGG\L 8GG	4g/	4B\ 4d	.	4g/	-wczy-	-wczy-	-wczy-
(16D'\L 16G 16B	.	.	.	.	.	.	.
16D'\JJ) 16G 16B	.	.	.	.	.	.	.
(8D'\L 8G 8B	4d/	4d\	.	4d/	-no,	-no,	-no,
8D'\J) 8G 8B	.	.	.	.	.	.	.
=7	=7	=7	=7	=7	=7	=7	=7
8CC\L 8C	4ee/	4e\ 4g	.	4ee\	że	to	bo
(16E'\L 16A 16c	.	.	.	.	.	.	.
16E'\JJ) 16A 16c	.	.	.	.	.	.	.
(8E'\L 8A 8c	8.a/L	8.e\L 8.g	.	8.a/	śmierć	or-	z krwi
8E'\J) 8A 8c	.	.	.	.	.	.	.
.	16b/Jk	16e\Jk 16g	.	16b\	do-	-ły	po-
!!LO:LB:g=original
=8	=8	=8	=8	=8	=8	=8	=8
8AAA/ 8AA	4cc/	4e\ 4g	.	4cc\	-ko-	bia-	-wo-
4E\ 4A 4c	.	.	.	.	.	.	.
.	4a/	4e\ 4g	.	4a/	-ła,	-łe	-dzi
8E\ 8A 8c	.	.	.	.	.	.	.
=9	=9	=9	=9	=9	=9	=9	=9
*	*	*^	*	*	*	*	*
8DD/ 8D	4d/	2d\	4ryy	.	4d/	Że	Nad	Z tych
4D\ 4F# 4c	.	.	.	.	.	.	.	.
.	8.cc/L	.	8.a\L	.	8.cc\	bra-	Pol-	rzek,
8D\ 8F# 8c	.	.	.	.	.	.	.	.
.	16cc/Jk	.	16a\Jk	.	16cc\	-cia	-ską	co
*	*	*v	*v	*	*	*	*	*
=10	=10	=10	=10	=10	=10	=10	=10
8GGG/ 8GG	4a/ 4cc	2d\	.	4cc\	two-	zie-	krwa-
4D\ 4G 4B	.	.	.	.	.	.	.
.	4g/ 4b	.	.	4b\	-i	-mią	-we
8D\ 8G 8B	.	.	.	.	.	.	.
=11	=11	=11	=11	=11	=11	=11	=11
*	*	*^	*	*	*	*	*
8DD/ 8D	4d/	2d\	4ryy	.	4d/	dziś	zwy-	do
!LO:TX:a:i:t=rall.	!	!	!	!	!	!	!	!
4D\ 4F# 4c	.	.	.	.	.	.	.	.
.	8.a/L	.	8.c\L 8.e	.	8.a/	w bo-	-cię-	mo-
8D\ 8F#	.	.	.	.	.	.	.	.
.	16a/Jk	.	16c\Jk 16f#	.	16a/	-ju	-skie	-rza
*	*	*v	*v	*	*	*	*	*
!!LO:PB:g=original
=12	=12	=12	=12	=12	=12	=12	=12
8GGG/ 8GG	4f#/ 4a	4c\	.	4a/	gi-	pły-	pły-
4D\ 4G 4B	.	.	.	.	.	.	.
.	8g/	8B\	.	8g/	-ną,	-ną,	-ną,
8D\ 8G 8B	8r	8ryy	.	8r	.	.	.
=13	=13	=13	=13	=13	=13	=13	=13
!	!LO:TX:b:i:t=con brio	!	!	!	!	!	!
8CC/ 8C	4a/	4e\ 4g	f	4a/	Pol-	I	Kwiat
4E\ 4G 4A	.	.	.	.	.	.	.
.	8.b/L	8.e\L 8.g	.	8.b\	-ska	prze-	się
8E\ 8G 8A 8c	.	.	.	.	.	.	.
.	16a/Jk	16e\Jk 16g	.	16a/	do	-bi-	wol-
=14	=14	=14	=14	=14	=14	=14	=14
8CC#X/ 8C#X	4ff#^/	4g\ 4a#X	.	4ff#^\	wal-	-ja-	-no-
4C#\ 4G 4A#X 4e	.	.	.	.	.	.	.
.	4ee^/	4g\ 4a#	.	4ee^\	-ki	-ją	-ści
8C#\ 8G 8A# 8e	.	.	.	.	.	.	.
!!LO:LB:g=original
=15	=15	=15	=15	=15	=15	=15	=15
*^	*	*	*	*	*	*	*
8DD\L 8D	4ryy	4gg/	4g\ 4b	ff	4gg\	sy-	złych	Pol-
16D\L 16G 16B	.	.	.	.	.	.	.	.
16D\JJ 16G 16B	.	.	.	.	.	.	.	.
8.f#/L	4G\ 4B	8.ff#/L	16g\ 16b	.	8.ff#\	-nów	chmur	-skiej
.	.	.	8g\ 8b	.	.	.	.	.
16e/Jk	.	16ee/Jk	16g\ 16b	.	16ee\	swych	na-	na-
*v	*v	*	*	*	*	*	*	*
=16	=16	=16	=16	=16	=16	=16	=16
4C#X\ 4E-X 4G 4B-X	4ee-X/	4e-X\ 4g 4b-X	.	4ee-X\	wo-	-wa-	-ro-
8C#X:\ 8E-X: 8G: 8B-X:	8ee-:/	8e-:\ 8g: 8b-:	.	8ee-\	-ła.	-łę.	-dzi.
8r	8r	8ryy	.	8r	.	.	.
=17	=17	=17	=17	=17	=17	=17	=17
!	!	!	!	!LO:TX:a:B:t=Tempo I.	!	!	!
8DD\L 8D	4dd/	4d\ 4g 4bn	.	4dd\	Nie	Nie	Nie
16D\L 16G 16Bn	.	.	.	.	.	.	.
16D\JJ 16G 16B	.	.	.	.	.	.	.
8D\L 8G 8B	8b/L	8d\L 8g	.	8b\	płacz	płacz	płacz
8D\J 8G 8B	8g/J	8d\J	.	8g/	dzie-	dzie-	dzie-
!!LO:LB:g=original
=18	=18	=18	=18	=18	=18	=18	=18
4CC/ 4C	4ee/	4e\ 4g	.	4ee\	-wczy-	-wczy-	-wczy-
4BBB/ 4BB	4dd/	4d\ 4g	.	4dd\	-no,	-no,	-no,
=19	=19	=19	=19	=19	=19	=19	=19
4CC/ 4C	4a/	4e\ 4g	.	4a/	Nie	Nie	Nie
8.BBB/L 8.BB	8.dd/L	8.c\L 8.d 8.f#	.	8.dd\	płacz	płacz	płacz
16AAA/Jk 16AA	16dd/Jk	16c\Jk 16d 16f#	.	16dd\	dzie-	dzie-	dzie-
=20	=20	=20	=20	=20	=20	=20	=20
*	*	*	*	*^	*	*	*
8GGG/ 8GG	[4gg/	8r	.	4gg/	4g\	-wczy-	-wczy-	-wczy-
8G\ 8c 8e-X	.	8a\ 8cc 8ee-X	.	.	.	.	.	.
8G\ 8d	8gg/]	8g\ 8b	.	8gg/	8g\	-no,	-no,	-no,
8r	8r	8ryy	.	8r	8ryy	.	.	.
*	*v	*v	*	*	*	*	*	*
*	*	*	*v	*v	*	*	*
==	==	==	==	==	==	==
*-	*-	*-	*-	*-	*-	*-
!!!system-decoration: s1{(s2,s3)}
!!!RDF**kern: < = below
!!!RDF**kern: > = above
!!!ENC: Filip Voros
!!!END: 2023-08-25
!!!ENC: Marta Chmielewska
!!!END: 2023-09-22
